usr/share/icons/biglinux-icons-material/32/actions/color-picker-grey.svg

<svg xmlns="http://www.w3.org/2000/svg" viewBox="0 0 32 32">
  <defs
     id="defs3051">
    <style
       type="text/css"
       id="current-color-scheme">
      .ColorScheme-Text {
        color:#363636;
      }
      </style>
  </defs>
  <path
     style="fill:currentColor;fill-opacity:1;stroke:none"
     d="M 13.494141 3.9941406 C 12.034641 9.1016406 8.4636719 13.493766 6.8886719 17.009766 C 6.3381719 18.055266 5.9941406 19.226641 5.9941406 20.494141 C 5.9941406 24.649141 9.3391406 27.994141 13.494141 27.994141 C 17.649141 27.994141 20.994141 24.649141 20.994141 20.494141 C 20.994141 19.226641 20.653562 18.055266 20.101562 17.009766 C 18.526563 13.495266 14.953641 9.1016406 13.494141 3.9941406 z M 23.5 4 C 21.007 4 19 6.007 19 8.5 C 19 10.993 21.007 13 23.5 13 C 25.993 13 28 10.993 28 8.5 C 28 6.007 25.993 4 23.5 4 z M 16.919922 15.570312 C 18.476922 16.651812 19.494141 18.446641 19.494141 20.494141 C 19.494141 23.818141 16.818141 26.494141 13.494141 26.494141 C 11.446641 26.494141 9.6518125 25.476922 8.5703125 23.919922 C 9.5408125 24.594922 10.717641 24.994141 11.994141 24.994141 C 15.318141 24.994141 17.994141 22.318141 17.994141 18.994141 C 17.994141 17.717641 17.594922 16.540813 16.919922 15.570312 z "
     id="path64"
     class="ColorScheme-Text" />
  <path
     style="fill:#bdc3c7"
     d="m 23.500008,4.9999876 c 1.939,0 3.5,1.561 3.5,3.5 0,1.9390004 -1.561,3.5000004 -3.5,3.5000004 -1.939,0 -3.5,-1.561 -3.5,-3.5000004 0,-1.939 1.561,-3.5 3.5,-3.5 z"
     id="rect68" />
</svg>

<svg xmlns="http://www.w3.org/2000/svg" viewBox="0 0 32 32"><path d="M13.494 3.994c-1.46 5.108-5.03 9.5-6.605 13.016-.55 1.045-.895 2.217-.895 3.484 0 4.155 3.345 7.5 7.5 7.5 4.155 0 7.5-3.345 7.5-7.5 0-1.267-.34-2.439-.892-3.484-1.575-3.515-5.148-7.908-6.608-13.016zM23.5 4A4.49 4.49 0 0 0 19 8.5a4.49 4.49 0 0 0 4.5 4.5A4.49 4.49 0 0 0 28 8.5 4.49 4.49 0 0 0 23.5 4zm-6.58 11.57a5.972 5.972 0 0 1 2.574 4.924c0 3.324-2.676 6-6 6A5.972 5.972 0 0 1 8.57 23.92a5.97 5.97 0 0 0 3.424 1.074c3.324 0 6-2.676 6-6a5.97 5.97 0 0 0-1.074-3.424z" style="fill:currentColor;fill-opacity:1;stroke:none;color:#dedede"/><path d="M23.5 5C25.439 5 27 6.561 27 8.5S25.439 12 23.5 12A3.492 3.492 0 0 1 20 8.5C20 6.561 21.561 5 23.5 5z" style="fill:#bdc3c7"/></svg>
